portal-web/docroot/html/themes/_unstyled/images/common/revision.svg

<svg xmlns="http://www.w3.org/2000/svg" viewBox="0 0 512 512" enable-background="new 0 0 512 512">
    <path id="time-10-icon" d="M349.657 118.254l20.986-30.542 32.918 22.725-20.89 30.402c-10.177-8.59-21.23-16.18-33.013-22.586zM225.722 49.12v47.7c9.873-1.53 19.982-2.33 30.277-2.33 10.1 0 20.026.768 29.722 2.243V49.12h-60zm201.972 242.065c0 94.824-76.87 171.695-171.695 171.695-94.825 0-171.694-76.87-171.694-171.695 0-94.823 76.87-171.694 171.693-171.694 94.825 0 171.694 76.87 171.694 171.695zm-45 0c0-70.03-56.678-126.694-126.695-126.694-70.032 0-126.694 56.68-126.694 126.695 0 70.03 56.678 126.695 126.693 126.695 70.03 0 126.694-56.676 126.694-126.695zm-93.43 9.042c0 17.396-14.103 31.5-31.5 31.5s-31.5-14.104-31.5-31.5c0-11.3 5.954-21.207 14.894-26.766l11.525-86.606c.236-1.95 1.87-3.428 3.834-3.47 1.963-.043 3.658 1.363 3.98 3.3l13.33 86.447c9.24 5.49 15.436 15.568 15.436 27.097zM267 400.86h-20v-26h20v26zm100-120v20h-26v-20h26zm-220 0v20h26v-20h-26zm194.853 80.712l-14.142 14.142L310.5 358.5l14.142-14.14 17.213 17.212zM186.29 206.01l-14.144 14.142 17.214 17.213 14.142-14.143-17.213-17.213zm141.42 0l14.143 14.142-17.213 17.213-14.142-14.143 17.213-17.213zM172.147 361.572l14.143 14.142L203.5 358.5l-14.142-14.14-17.214 17.213z"/>
</svg>

<?xml version="1.0" encoding="utf-8"?>
<!-- License Agreement at http://iconmonstr.com/license/ -->
<!DOCTYPE svg PUBLIC "-//W3C//DTD SVG 1.1//EN" "http://www.w3.org/Graphics/SVG/1.1/DTD/svg11.dtd">
<svg version="1.1" xmlns="http://www.w3.org/2000/svg" xlink="http://www.w3.org/1999/xlink" x="0px" y="0px" viewBox="0 0 512 512" enable-background="new 0 0 512 512" space="preserve"> <path id="time-10-icon" d="M349.657,118.254l20.986-30.542l32.918,22.725l-20.891,30.402
C372.493,132.249,361.44,124.661,349.657,118.254z M225.722,49.12v47.701c9.873-1.532,19.982-2.331,30.277-2.331
c10.102,0,20.027,0.768,29.723,2.243V49.12H225.722z M427.694,291.185c0,94.824-76.869,171.695-171.695,171.695
c-94.824,0-171.693-76.871-171.693-171.695c0-94.823,76.869-171.694,171.693-171.694
C350.825,119.49,427.694,196.361,427.694,291.185z M382.694,291.185c0-70.031-56.678-126.694-126.695-126.694
c-70.031,0-126.693,56.678-126.693,126.694c0,70.031,56.678,126.695,126.693,126.695C326.03,417.88,382.694,361.204,382.694,291.185
z M289.263,300.227c0,17.396-14.102,31.5-31.5,31.5c-17.396,0-31.5-14.104-31.5-31.5c0-11.301,5.955-21.207,14.895-26.766
l11.525-86.607c0.236-1.949,1.871-3.428,3.834-3.471c1.963-0.042,3.658,1.364,3.979,3.301l13.33,86.447
C283.067,278.621,289.263,288.698,289.263,300.227z M267,400.861h-20v-26h20V400.861z M367,280.861v20h-26v-20H367z M147,280.861v20
h26v-20H147z M341.853,361.572l-14.142,14.142l-17.213-17.213l14.142-14.142L341.853,361.572z M186.289,206.009l-14.143,14.143
l17.214,17.213l14.142-14.143L186.289,206.009z M327.711,206.009l14.142,14.143l-17.213,17.213l-14.142-14.143L327.711,206.009z
M172.146,361.573l14.143,14.142l17.213-17.214l-14.142-14.142L172.146,361.573z"></path> </svg>
